X:2615
T:Polonäs efter Rondahl i G
R:Slängpolska
O:Slite, Gotland
B:Rondahls nothäfte
B:[[http://www.smus.se/earkiv/fmk/browselarge.php?lang=sw&katalogid=MMD+50&bildnr=00022|SMUS - katalog MMD50 bild 22]] nr 55
N:ur ett notehäfte märkt "Carl Nicolaus Arvid Rondahl"
Z:Nils L
M:3/4
L:1/16
K:G
g2g2 d2dc B2BA | G2GA BAGF G4   | G2g2 g2ga b2b2 | a2ag f2fe d4 |
g2g2 d2dc B2BA | G2GA BAGF G4   | G2g2 g2ga b2b2 | a2ag f2fe d4 ::
B2B2 BABc d4   | BAGF GABc d4   | B2B2 BABc d4   | BAGF GABc d4 |
d2b2 c2a2 B2g2 | BAGF G4   G,4 :|
(:musicend:)
(:music:)
